X:1
T:Title
%%score 1 { 2 | 3 }
L:1/8
Q:1/4=107
M:4/4
K:F
V:1 treble nm="Grand Piano, Soprano"
V:2 treble nm="Choir Pad, Saskatchewan, J Rosecrans"
V:3 bass 
V:1
 [Fc]3 [Fd] [EB]2 [EB]2 | [GB]3 [Ec] [FA]4 | [Fd]3 [Fc] [EB]2 [FA]2 | [FA]3 [EG] [EG]4 | %4
w: By~James~Holmes~Rosecrans,~1893 * * *||||
 [Fc]3 [Fd] [EB]2 [EB]2 | [GB]3 [Ec] [FA]4 | [EG]3 [EG] [FA]2 [F=B]2 | [Fd]3 [Ec] [Ec]4 | %8
w: ||||
 [Ec]2 [Ec]2 [Fc]2 [Ec]2 | [Fc]3 [EB] [FA]4 | G2 [FA]2 [FB]2 [GB]2 | [FA]3 [CG] [CF]4- | %12
w: ||||
 [CF]4 z4 |] %13
w: |
V:2
 A,3 B, C2 C2 | C3 C C4 | B,3 C C2 C2 | C3 C C4 | A,3 B, C2 C2 | C3 C C4 | C3 C C2[K:bass] G,2 | %7
 =B,3 C C4 | G,2 G,2 A,2 B,2 | C3 C C4 | B,2 C2 D2[K:bass] D2 | C3 B, A,4- | A,4 z4 |] %13
V:3
 F,3 F, G,2 G,2 | C,3 C, F,4 | z2 z A, G,2 F,2 | C,3 C, C,4 | F,3 F, G,2 G,2 | C,3 C, F,4 | %6
 C,3 C, F,2 z2 | G,3 C, C,4 | C,2 C,2 F,2 G,2 | A,3 G, F,4 | D,2 C,2 B,,2 G,,2 | C,3 C, F,4- | %12
 F,4 z4 |] %13

